src/lib/packages/icons/src/assets/filled/books.svg

<svg width="24" height="24" viewBox="0 0 24 24" fill="none" xmlns="http://www.w3.org/2000/svg">
<path d="M13 8.05009V15.95C13 16.116 12.866 16.25 12.7 16.25H8.30005C8.13405 16.25 8 16.116 8 15.95V8.05009C8 7.88409 8.13405 7.75004 8.30005 7.75004H12.7C12.866 7.75004 13 7.88409 13 8.05009ZM6.69995 7.75004H2.30005C2.13405 7.75004 2 7.88409 2 8.05009V15.95C2 16.116 2.13405 16.25 2.30005 16.25H6.69995C6.86595 16.25 7 16.116 7 15.95V8.05009C7 7.88409 6.86595 7.75004 6.69995 7.75004ZM19.147 5.59709L18.8501 4.2C18.6401 3.23 18.0501 2.85009 17.0801 3.05009L15.1399 3.47002C14.1699 3.67002 13.79 4.26003 13.99 5.23003L14.2881 6.63603C14.3221 6.79803 14.482 6.90199 14.644 6.86699L18.917 5.95305C19.079 5.91805 19.182 5.75909 19.147 5.59709ZM21.208 15.3071L19.583 7.6541C19.548 7.4921 19.3891 7.38802 19.2271 7.42302L14.9541 8.33708C14.7921 8.37208 14.6891 8.53104 14.7241 8.69304L16.3589 16.346C16.3939 16.508 16.5531 16.6111 16.7151 16.5771L20.979 15.663C21.139 15.628 21.242 15.4691 21.208 15.3071ZM21.9399 18.7701L21.6421 17.3641C21.6081 17.2021 21.4479 17.0981 21.2859 17.1331L17.0229 18.047C16.8609 18.082 16.758 18.241 16.793 18.403L17.0911 19.8001C17.3011 20.7701 17.8811 21.15 18.8511 20.95L20.801 20.5301C21.77 20.3301 22.1499 19.7401 21.9399 18.7701ZM11.5 3.00004H9.5C8.5 3.00004 8 3.50004 8 4.50004V5.95C8 6.116 8.13405 6.25005 8.30005 6.25005H12.7C12.866 6.25005 13 6.116 13 5.95V4.50004C13 3.50004 12.5 3.00004 11.5 3.00004ZM5.5 3.00004H3.5C2.5 3.00004 2 3.50004 2 4.50004V5.95C2 6.116 2.13405 6.25005 2.30005 6.25005H6.69995C6.86595 6.25005 7 6.116 7 5.95V4.50004C7 3.50004 6.5 3.00004 5.5 3.00004ZM6.69995 17.75H2.30005C2.13405 17.75 2 17.8841 2 18.0501V19.5C2 20.5 2.5 21 3.5 21H5.5C6.5 21 7 20.5 7 19.5V18.0501C7 17.8841 6.86595 17.75 6.69995 17.75ZM12.7 17.75H8.30005C8.13405 17.75 8 17.8841 8 18.0501V19.5C8 20.5 8.5 21 9.5 21H11.5C12.5 21 13 20.5 13 19.5V18.0501C13 17.8841 12.866 17.75 12.7 17.75Z" fill="currentColor"/>
</svg>

<svg xmlns="http://www.w3.org/2000/svg" width="24" height="24" fill="none"><path fill="currentColor" d="M13 8.05v7.9a.3.3 0 0 1-.3.3H8.3a.3.3 0 0 1-.3-.3v-7.9a.3.3 0 0 1 .3-.3h4.4a.3.3 0 0 1 .3.3Zm-6.3-.3H2.3a.3.3 0 0 0-.3.3v7.9a.3.3 0 0 0 .3.3h4.4a.3.3 0 0 0 .3-.3v-7.9a.3.3 0 0 0-.3-.3Zm12.447-2.153L18.85 4.2c-.21-.97-.8-1.35-1.77-1.15l-1.94.42c-.97.2-1.35.79-1.15 1.76l.298 1.406a.3.3 0 0 0 .356.231l4.273-.914a.3.3 0 0 0 .23-.356Zm2.061 9.71-1.625-7.653a.3.3 0 0 0-.356-.231l-4.273.914a.3.3 0 0 0-.23.356l1.635 7.653a.301.301 0 0 0 .356.231l4.264-.914a.301.301 0 0 0 .229-.356Zm.732 3.463-.298-1.406a.3.3 0 0 0-.356-.23l-4.263.913a.3.3 0 0 0-.23.356l.298 1.397c.21.97.79 1.35 1.76 1.15l1.95-.42c.969-.2 1.349-.79 1.139-1.76ZM11.5 3h-2C8.5 3 8 3.5 8 4.5v1.45a.3.3 0 0 0 .3.3h4.4a.3.3 0 0 0 .3-.3V4.5c0-1-.5-1.5-1.5-1.5Zm-6 0h-2C2.5 3 2 3.5 2 4.5v1.45a.3.3 0 0 0 .3.3h4.4a.3.3 0 0 0 .3-.3V4.5C7 3.5 6.5 3 5.5 3Zm1.2 14.75H2.3a.3.3 0 0 0-.3.3v1.45c0 1 .5 1.5 1.5 1.5h2c1 0 1.5-.5 1.5-1.5v-1.45a.3.3 0 0 0-.3-.3Zm6 0H8.3a.3.3 0 0 0-.3.3v1.45c0 1 .5 1.5 1.5 1.5h2c1 0 1.5-.5 1.5-1.5v-1.45a.3.3 0 0 0-.3-.3Z"/></svg>
